src/landing-images/icons/telegram.svg

<svg width="45" height="43" viewBox="0 0 45 43" fill="none" xmlns="http://www.w3.org/2000/svg">
  <path d="M44.4934 3.7553L36.5186 36.6241C36.1434 38.1721 34.4076 38.9697 32.9846 38.2346L22.8983 33.0277L18.129 40.8304C16.8313 42.9571 13.5476 42.0346 13.5476 39.548V30.8538C13.5476 30.1815 13.8289 29.5403 14.3137 29.0712L33.9698 10.3069C33.9541 10.0724 33.7038 9.86922 33.4539 10.0409L9.9985 26.3659L2.11757 22.3003C0.27259 21.3464 0.350775 18.6724 2.25823 17.8438L41.1165 0.909414C42.9772 0.0961503 44.979 1.76945 44.4942 3.75516L44.4934 3.7553Z" fill="url(#paint0_linear_101_205)"/>
  <defs>
    <linearGradient id="paint0_linear_101_205" x1="16.7025" y1="-3.64987" x2="46.015" y2="39.6906" gradientUnits="userSpaceOnUse">
      <stop stop-color="#B196DF"/>
      <stop offset="1" stop-color="#7B59DD"/>
    </linearGradient>
  </defs>
</svg>

<svg xmlns="http://www.w3.org/2000/svg" width="45" height="43" viewBox="0 0 45 43" fill="none"><path fill="#18232F" d="m44.493 3.755-7.974 32.87a2.472 2.472 0 0 1-3.534 1.61l-10.087-5.207-4.769 7.802c-1.298 2.127-4.581 1.205-4.581-1.282v-8.694c0-.672.28-1.314.766-1.783L33.97 10.307c-.016-.235-.266-.438-.516-.266L9.998 26.366 2.119 22.3c-1.845-.954-1.767-3.628.14-4.456L41.117.909c1.86-.813 3.862.86 3.377 2.846Z"/></svg>
